X:1
T:Title
%%score { ( 1 3 4 ) | 2 }
L:1/8
M:4/4
K:Bb
V:1 treble nm="Grand Piano"
V:3 treble 
V:4 treble 
V:2 bass 
V:1
 z4 z2[Q:1/4=96] [Fd]>[Ec] | [Ec][DB][B,D][CE] [DF][DF][DB][FA] |[M:3/4] [FA]G ^FG c2 | %3
[M:1/4] c[Fd] |[M:4/4] [Ge][Ge]AG FFGA |[M:3/4] [DB][Ec] [DB][B,D] [DF]2 |[M:1/4] [Fd]>[Ec] | %7
[M:4/4] [Ec][DB][B,D][CE] [DF][DF][DB][FA] |[M:3/4] [FA]G ^FG c2 |[M:1/4] c[Fd] | %10
[M:4/4] [Ge][Ge]AG FFGA |[M:3/4] [DB][DB] [EB][EB] [DB]2 |[M:1/4] [DF][Fd] | %13
[M:4/4] B-[DB-][DB-][DB-] [DB]D[B,DF][DFB] | A6 z2 | A6 z2 | D6[K:bass] z2[K:treble] | %17
 F-[DF-][DF-][DF-] [DF]Bcd | e-[Ge-][Ge-][Ge] z Ec[GB] | A6 z2 |[M:3/4] [DB]6 |] %21
V:2
 z4 z2 [B,,B,]>[B,,F,] | [B,,F,][B,,F,][B,,F,][B,,F,] [B,,B,][B,,B,][B,,F,][D,B,] | %2
[M:3/4] [E,B,][E,B,E] [E,A,E][E,B,E] [E,G,E]2 |[M:1/4] [E,G,E][D,=B,] | %4
[M:4/4] [C,C][C,C][F,CE][F,B,E] [F,A,E][F,A,E][F,B,E][F,CE] | %5
[M:3/4] [B,,B,][B,,F,] [B,,F,][B,,F,] [B,,B,]2 |[M:1/4] [B,,B,]>[B,,F,] | %7
[M:4/4] [B,,F,][B,,F,][B,,F,][B,,F,] [B,,B,][B,,B,][B,,F,][D,B,] | %8
[M:3/4] [E,B,][E,B,E] [E,A,E][E,B,E] [E,G,E]2 |[M:1/4] [E,G,E][D,=B,] | %10
[M:4/4] [C,C][C,C][F,CE][F,B,E] [F,A,E][F,A,E][F,B,E][F,CE] | %11
[M:3/4] [B,,B,][B,,F,] [B,,G,][B,,G,] [B,,F,]2 |[M:1/4] [B,,B,][B,,B,] | %13
[M:4/4] [B,,F,][B,,F,][B,,F,][B,,F,] [B,,F,]2 B,,B,, | %14
 [F,CF][F,C][F,C][F,C] [F,C]2[K:treble] [A,C][A,CF] | [F,CE][F,C][F,C][F,C] [F,C]2 [F,B,D][F,A,C] | %16
 [B,,B,][B,,F,][B,,F,][B,,F,] [B,,F,]2 [B,,F,B,][B,,F,] | %17
 [B,,B,][B,,B,][B,,B,][B,,B,] [B,,B,][K:treble][B,DF][A,CF][B,_A] | %18
 [E,B,][E,B,][E,B,][E,B,] [E,B,E][E,B,][E,G,E][=E,C] | %19
 [F,CF][F,C][F,C][F,C] [F,C][F,CF][F,CE][F,E] |[M:3/4] [B,,F,]6 |] %21
V:3
 x8 | x8 |[M:3/4] x6 |[M:1/4] x2 |[M:4/4] x8 |[M:3/4] x6 |[M:1/4] x2 |[M:4/4] x8 |[M:3/4] x6 | %9
[M:1/4] x2 |[M:4/4] x8 |[M:3/4] x6 |[M:1/4] x2 |[M:4/4] .D2 z2 z4 | z FFF F2 Fe | z EEE z GFE | %16
 z[K:bass] B,B,B, B,2 D[K:treble][CE] | .D2 z2 z4 | .G2 z2 G2 z2 | z FFF FAGA |[M:3/4] x6 |] %21
V:4
 x8 | x8 |[M:3/4] x6 |[M:1/4] x2 |[M:4/4] x8 |[M:3/4] x6 |[M:1/4] x2 |[M:4/4] x8 |[M:3/4] x6 | %9
[M:1/4] x2 |[M:4/4] x8 |[M:3/4] x6 |[M:1/4] x2 |[M:4/4] x8 | x8 | z4 E2 z2 | %16
 x[K:bass] x6[K:treble] x | x8 | x8 | x8 |[M:3/4] x6 |] %21

